X:1
T:Bad Brahma Bull
M:3/4
L:1/4
K:D
 D/2D/2| F F F| F D D| E B, B,| B,2 B,| C C C| C B, A,| D E =F| ^F2 D/2D/2|\
 F F F| F D D| E B, B,| B,2 B,| C C C| C2 B,/2A,/2| G F E| D2 D| G G G|\
 G G G| G F E| A2 F/2G/2| A A A| A F D| D C D| E2 D| F F F| F E D|\
 E B, B,| B,2 B,/2B,/2| C C C| C B, A,| G F E| D2||
